X:1
T:Mrs. Macleod of Macleod’s Strathspey
C:Robert Mackintosh
M:C
L:1/16
R:Strathspey
B:Robert Mackintosh – “A Fourth Collection of New Strathspey Reels, also some Famous old Reels” (1804, p. 30)
N:Dedicated to the Dutchess [sic] of Manchester
N:Robert “Red Rob” Mackintosh (c. 1745-1808) was a Scottish violinist and
N:composer active in Edinburgh at the end of the 18th century. Originally from
N:Tullymet, near Pitlochry, Perthshire.  He moved to London in the last decade
N:of his life.
Z:AK/Fiddler’s Companion
K:Gmin
d2|gd3Td2c2 B3AGB3|Fc3Af3 ca3A^f3|gd3Td3c B3AGB3|A3e dcBA (BG3G3B)|
gd3d3c B3AGB3|Fc3Af3 c2a2A^f3|gd3Td3c TB3AGD3|EC3D3^F G2G,2G,2||
d2|g3d bag^f Bd3Bg3|f3c agf=e Fc3A^f3|g3d (bag^f g)d3ec3|dB3 (dcBA) (B2G2G2d2)|
g3d (bag^f) Gd3Bg3|f3c (agf=e) Fc3A^f3|gb3dg3 Bg3ce3|d3B (dcBA) B2G2G2||

